X: 40342
T: Tom Byrne's
R: reel
M: 4/4
K: Cmajor
|:A,DDC DEFA|dcAB c/B/A GF|ECCB, C/D/C G,C|E,CG,C cAGE|
A,DDC DEFA|dcAB cAGF|ECCB, CD E/F/G|1 AcGE D2 DC:|2 AcGE D2 EG||
|:Add^c d2 Ad|FdAd fedc|GccB c2 Gc|EcGc edcB|
[1 Add^c d2 Ad|FdAd fedc|agfe fedc|AcGE D2 EG:|
[2 Adde fedc|AcGF EC C2|agfe fedc|AcGE D3||

